src/Resource_Files/fluent/git-checkout.svg

<svg clip-rule="evenodd" fill-rule="evenodd" stroke-linejoin="round" stroke-miterlimit="2" viewBox="0 0 16 16" xmlns="http://www.w3.org/2000/svg"><path d="m3.009 1.747c3.141-2.513 7.737-2.315 10.648.596 3.124 3.124 3.124 8.19 0 11.314s-8.189 3.124-11.314 0c-1.9-1.901-2.697-4.587-2.198-7.177.072-.372.431-.615.803-.544.155.03.343.129.347.277.009.344-.295 1.149-.295 1.787 0 3.863 3.223 7 7.087 7 3.863 0 6.913-3.137 6.913-7s-3.137-7-7-7c-1.935 0-3.447.561-4.649 1.735.163-.005.365-.018.612-.038l.814.001.086.006c.311.043.551.315.551.645 0 .359-.285.651-.637.651h-2.405l-.087-.006c-.311-.043-.551-.316-.551-.645v-2.456l.006-.088c.042-.318.309-.563.632-.563.352 0 .637.292.637.651z" fill="#1abc9c" fill-rule="nonzero"/></svg>

<?xml version="1.0" encoding="UTF-8" standalone="no"?>
<!DOCTYPE svg PUBLIC "-//W3C//DTD SVG 1.1//EN" "http://www.w3.org/Graphics/SVG/1.1/DTD/svg11.dtd">
<svg width="100%" height="100%" viewBox="0 0 16 16" version="1.1" xmlns="http://www.w3.org/2000/svg" xmlns:xlink="http://www.w3.org/1999/xlink" xml:space="preserve" xmlns:serif="http://www.serif.com/" style="fill-rule:evenodd;clip-rule:evenodd;stroke-linejoin:round;stroke-miterlimit:2;">
    <path id="checkout" d="M3.009,1.747C6.15,-0.766 10.746,-0.568 13.657,2.343C16.781,5.467 16.781,10.533 13.657,13.657C10.533,16.781 5.468,16.781 2.343,13.657C0.443,11.756 -0.354,9.07 0.145,6.48C0.217,6.108 0.576,5.865 0.948,5.936C1.103,5.966 1.291,6.065 1.295,6.213C1.304,6.557 1,7.362 1,8C1,11.863 4.223,15 8.087,15C11.95,15 15,11.863 15,8C15,4.137 11.863,1 8,1C6.065,1 4.553,1.561 3.351,2.735C3.514,2.73 3.716,2.717 3.963,2.697L4.777,2.698L4.863,2.704C5.174,2.747 5.414,3.019 5.414,3.349C5.414,3.708 5.129,4 4.777,4L2.372,4L2.285,3.994C1.974,3.951 1.734,3.678 1.734,3.349L1.734,0.893L1.74,0.805C1.782,0.487 2.049,0.242 2.372,0.242C2.724,0.242 3.009,0.534 3.009,0.893L3.009,1.747Z" style="fill:rgb(26,188,156);fill-rule:nonzero;"/>
</svg>
